X:1
T:Jolie Blonde
M:3/4
L:1/8
K:C
 B,D| E6-| E3 EE E|E-D D4-| D4 B,C| D6-| D3 DD D|E-D D4-| D4 DD| E4 EE|\
 C3 CD E| D6-| D4| ED| D2 B,2 ED| D3 B,D B,| G,6-| G,4||
